resources/svg/list-ordered-o.svg

<svg xmlns="http://www.w3.org/2000/svg" viewBox="0 0 15 15" fill="none"><path d="M0.5 13.5L0.146447 13.1464C0.00344761 13.2894 -0.0393303 13.5045 0.0380602 13.6913C0.115451 13.8782 0.297769 14 0.5 14V13.5ZM1.5 2.5H2V2H1.5V2.5ZM5 8H15V7H5V8ZM5 4H15V3H5V4ZM5 12H15V11H5V12ZM3 13H0.5V14H3V13ZM0.853553 13.8536L2.64645 12.0607L1.93934 11.3536L0.146447 13.1464L0.853553 13.8536ZM1.79289 10H1.5V11H1.79289V10ZM1.5 10C0.671573 10 0 10.6716 0 11.5H1C1 11.2239 1.22386 11 1.5 11V10ZM3 11.2071C3 10.5404 2.45956 10 1.79289 10V11C1.90728 11 2 11.0927 2 11.2071H3ZM2.64645 12.0607C2.87282 11.8343 3 11.5273 3 11.2071H2C2 11.262 1.97818 11.3147 1.93934 11.3536L2.64645 12.0607ZM0 6H3V5H0V6ZM2 5.5V2.5H1V5.5H2ZM1.5 2H0V3H1.5V2Z" fill="black"/></svg>

<svg xmlns="http://www.w3.org/2000/svg" viewBox="0 0 15 15" fill="none"><path d="M.5 13.5l-.354-.354A.5.5 0 00.5 14v-.5zm1-11H2V2h-.5v.5zM5 8h10V7H5v1zm0-4h10V3H5v1zm0 8h10v-1H5v1zm-2 1H.5v1H3v-1zm-2.146.854l1.792-1.793-.707-.707-1.793 1.792.708.708zM1.793 10H1.5v1h.293v-1zM1.5 10A1.5 1.5 0 000 11.5h1a.5.5 0 01.5-.5v-1zM3 11.207C3 10.54 2.46 10 1.793 10v1c.114 0 .207.093.207.207h1zm-.354.854c.227-.227.354-.534.354-.854H2a.207.207 0 01-.06.147l.706.707zM0 6h3V5H0v1zm2-.5v-3H1v3h1zM1.5 2H0v1h1.5V2z" fill="currentColor"/></svg>
